logos/zend-framework.svg

<?xml version="1.0" encoding="UTF-8" standalone="no"?>
<svg width="256px" height="124px" viewBox="0 0 256 124" version="1.1" xmlns="http://www.w3.org/2000/svg" xmlns:xlink="http://www.w3.org/1999/xlink" preserveAspectRatio="xMidYMid">
	<g fill="#6FB643">
		<path d="M120.429511,36.0206222 C120.429511,36.0206222 120.429511,2.2016 154.249244,2.2016 L255.7056,2.2016 C255.7056,2.2016 255.7056,36.0206222 221.886578,36.0206222 L120.429511,36.0206222"></path>
		<path d="M120.429511,79.2334222 C120.429511,79.2334222 120.429511,45.4144 154.249244,45.4144 L204.977067,45.4144 C204.977067,45.4144 204.977067,79.2334222 171.157333,79.2334222 L120.429511,79.2334222"></path>
		<path d="M120.429511,122.446222 C120.429511,122.446222 120.429511,88.6279111 154.249244,88.6279111 L171.157333,88.6279111 C171.157333,88.6279111 171.157333,122.446222 137.339733,122.446222 L120.429511,122.446222"></path>
		<path d="M109.075911,96.0547556 L109.075911,123.034311 L0.32,123.034311 L70.3800889,27.4666667 L10.2357333,27.4666667 L10.2357333,0.485688889 L123.692089,0.485688889 L53.9555556,96.0547556 L109.075911,96.0547556"></path>
	</g>
</svg>

<svg preserveAspectRatio="xMidYMid" viewBox="0 0 256 124" xmlns="http://www.w3.org/2000/svg">
  <g fill="#6FB643">
    <path d="M120.43 36.02s0-33.818 33.82-33.818h101.456s0 33.819-33.82 33.819H120.43"/>
    <path d="M120.43 79.233s0-33.819 33.82-33.819h50.727s0 33.82-33.82 33.82H120.43"/>
    <path d="M120.43 122.446s0-33.818 33.82-33.818h16.907s0 33.818-33.817 33.818h-16.91"/>
    <path d="M109.076 96.055v26.98H.32l70.06-95.568H10.236V.486h113.456L53.956 96.055h55.12"/>
  </g>
</svg>
